X:1
T:Marche Militaire
C:Franz Schubert
O:D.733 Op.51 No.1
M:2/4
L:1/8
Q:1/4=132
K:D
% A section — 16 bars (C4–D5). Pickup D4.
D | D F A d | d>c B A | G E c A | d4 | D F A d | d>c B A | G E c A | A4 |
A>G F E | F>E D2 | G>F E D | A4 | A>G F E | F>E D2 | G>F E D | d4 |]
